src/images/recycle.svg

<svg width="144" height="145" viewBox="0 0 144 145" fill="none" xmlns="http://www.w3.org/2000/svg">
<path d="M142.994 88.0251C142.329 89.7212 141.282 91.2408 139.934 92.4654L139.754 92.6454C137.43 94.8238 134.358 96.0265 131.173 96.0057H114.012C112.992 96.004 112.043 95.4842 111.492 94.6255L108.612 90.0052L96.4917 70.6243C96.0212 69.94 95.8887 69.0782 96.1317 68.2842C96.3159 67.4682 96.8399 66.7696 97.5718 66.364L124.573 51.3634C126.034 50.5953 127.841 51.1266 128.653 52.5636L142.574 77.4047C144.312 80.6991 144.467 84.6036 142.994 88.0251Z" fill="#336B68" fill-opacity="0.71"/>
<path d="M78.3702 24.5434L75.8501 28.0837L62.4696 46.7446C61.9076 47.5448 60.9871 48.0162 60.0094 48.0047C59.5079 47.9993 59.0146 47.8758 58.5693 47.6446L25.568 29.6438C24.8004 29.2371 24.2517 28.5126 24.068 27.6638C23.8784 26.8042 24.0759 25.9047 24.608 25.2036L37.4485 8.1028C37.9607 7.40358 38.5224 6.74205 39.1285 6.12271C42.7433 2.30963 47.736 0.105099 52.9891 0.00243783C53.2704 -0.00740636 53.5522 0.0125633 53.8292 0.0623467C60.2476 0.255855 66.193 3.48475 69.8499 8.76264L78.3702 21.1233C79.0835 22.1519 79.0835 23.5151 78.3702 24.5434Z" fill="#336B68" fill-opacity="0.71"/>
<path d="M59.0492 83.2284C58.1359 84.0674 56.8007 84.2584 55.6889 83.7085L46.3285 79.0283L40.8683 90.0088L38.7082 94.329C38.1907 95.3475 37.1506 95.9947 36.0081 96.009H12.8473C9.62993 96.0478 6.5262 94.8193 4.20691 92.5888L4.08681 92.4687C2.70496 91.2005 1.61901 89.6437 0.906572 87.9086C-0.0142819 85.5609 -0.222979 82.9939 0.306639 80.5283C0.540087 79.4679 0.902634 78.4402 1.38669 77.4682L11.347 57.6074L0.906572 47.1067C0.0169382 46.2787 -0.248292 44.9767 0.246448 43.8666C0.706594 42.7463 1.79536 42.0125 3.00648 42.0066H42.0083C43.2194 42.0125 44.3082 42.7463 44.7683 43.8666L59.7689 79.8682C60.235 81.0306 59.9503 82.359 59.0492 83.2284Z" fill="#336B68" fill-opacity="0.71"/>
<path d="M60.0094 93.0056V129.007C60.0094 130.664 58.6661 132.007 57.0091 132.007H42.4285C35.5423 132.023 29.0947 128.631 25.2076 122.947C24.3675 121.747 23.6475 120.667 22.9876 119.707L22.7477 119.467C22.8076 119.467 21.6078 117.787 20.4675 116.107C19.9275 115.387 19.5076 114.667 19.0874 114.127C17.5272 111.847 16.6873 110.707 17.0474 111.187C16.7473 110.707 16.4474 110.347 16.3273 110.107L16.2674 110.047C16.0275 109.687 15.9493 109.567 15.9375 109.537L15.8475 109.447L15.7876 109.327C11.5875 103.266 7.68723 97.6262 4.20717 92.5859L4.08707 92.4658C2.94712 90.9057 1.92698 89.3458 0.906837 87.9057C-0.0140159 85.558 -0.222713 82.9909 0.306905 80.5254L8.40726 88.2657C9.59335 89.4186 11.1937 90.0458 12.8476 90.0059H57.0094C58.6661 90.0056 60.0094 91.3486 60.0094 93.0056Z" fill="#336B68"/>
<path d="M125.772 16.1407L110.771 52.1423C110.311 53.2626 109.222 53.9964 108.011 54.0023C107.829 54.0121 107.647 53.9919 107.471 53.9424L74.4697 47.9422C73.211 47.6849 72.2365 46.6864 72.0095 45.4221C71.8298 44.1272 72.5096 42.8649 73.6895 42.3021L82.5698 37.8618L75.8496 28.0814L64.929 12.1206C62.2893 8.37027 57.9945 6.13338 53.4085 6.12045H39.1279C42.095 2.97959 46.02 0.911464 50.2884 0.240091L52.9885 0.0600828H53.8287L92.5903 0.00017385C97.6232 -0.0240147 102.333 2.47725 105.131 6.66047L112.031 17.1009L121.692 12.3006C122.803 11.7508 124.139 11.9415 125.052 12.7807C125.954 13.6493 126.239 14.9788 125.772 16.1407Z" fill="#336B68"/>
<path d="M142.993 88.0245L140.173 92.1047L139.933 92.4648L139.753 92.6448L118.872 122.946C114.96 128.633 108.494 132.023 101.592 132.006H96.0113V141.007C96.0017 142.249 95.2434 143.363 94.0911 143.827C93.7432 143.945 93.3784 144.006 93.011 144.007C92.1563 144.013 91.3429 143.64 90.791 142.987L66.7901 115.986C65.838 114.952 65.7623 113.386 66.6101 112.265L90.611 79.264C91.3468 78.2076 92.6803 77.7471 93.9111 78.124C95.1675 78.5192 96.0191 79.6873 96.0113 81.0042V90.0046H131.173C132.827 90.0448 134.427 89.4176 135.613 88.2644L143.713 80.524C144.266 83.0377 144.014 85.6619 142.993 88.0245Z" fill="#336B68"/>
</svg>

<svg xmlns="http://www.w3.org/2000/svg" width="144" height="145" fill="none"><path fill="#336B68" fill-opacity=".7" d="M143 88c-.7 1.7-1.7 3.2-3 4.5l-.2.1a12.4 12.4 0 01-8.6 3.4H114c-1 0-2-.5-2.5-1.4l-2.9-4.6-12.1-19.4c-.5-.7-.6-1.5-.4-2.3a3 3 0 011.5-2l27-15a3 3 0 014 1.3l14 24.8c1.7 3.3 1.9 7.2.4 10.6zM78.4 24.5l-2.5 3.6-13.4 18.6A3 3 0 0160 48c-.5 0-1-.1-1.4-.4l-33-18a3 3 0 01-1-4.4L37.4 8.1l1.7-2a19.6 19.6 0 0114.7-6c6.4.2 12.4 3.4 16 8.7L78.4 21a3 3 0 010 3.4zM59 83.2a3 3 0 01-3.3.5L46.3 79 41 90l-2.2 4.3A3 3 0 0136 96H12.8c-3.2 0-6.3-1.2-8.6-3.4l-.1-.1a12.8 12.8 0 01-3.2-4.6 12.8 12.8 0 01.5-10.4l10-19.9L.8 47.1A2.8 2.8 0 01.2 44 3 3 0 013 42h39a3 3 0 012.8 1.9l15 36a3 3 0 01-.8 3.3z"/><path fill="#336B68" d="M60 93v36a3 3 0 01-3 3H42.4c-6.9 0-13.3-3.4-17.2-9l-2.2-3.3-.3-.2-2.2-3.4-1.4-2c-1.6-2.3-2.4-3.4-2-3l-.8-1-.4-.6-.1-.2L4.2 92.6l-.1-.1-3.2-4.6c-1-2.3-1.1-5-.6-7.4l8.1 7.8a6.2 6.2 0 004.4 1.7H57a3 3 0 013 3zM125.8 16.1l-15 36a3 3 0 01-3.3 1.8l-33-6a3.1 3.1 0 01-2.5-2.5 3 3 0 011.7-3.1l8.9-4.4-6.8-9.8L65 12c-2.6-3.7-7-6-11.5-6H39.1c3-3.1 7-5.2 11.2-5.9L53 .1h.8L92.6 0c5 0 9.7 2.5 12.5 6.7l7 10.4 9.6-4.8a3 3 0 013.4.5 3 3 0 01.7 3.3zM143 88l-2.8 4.1-.3.4-.1.1-21 30.3a21 21 0 01-17.2 9.1H96v9a3 3 0 01-2 2.8l-1 .2c-.8 0-1.7-.4-2.2-1l-24-27a3 3 0 01-.2-3.7l24-33A3 3 0 0196 81v9h35.2c1.6 0 3.2-.6 4.4-1.7l8.1-7.8c.6 2.5.3 5.2-.7 7.5z"/></svg>
